X: 7446
T: Cluck Old Hen
R: barndance
M: 4/4
K: Adorian
|:e2ae g2ag|e2ae d2f2|e2ae gfgf|edc2 A1:|
|:A2A2 [c4e4]|A2A2 G4|A2AB cBcd|edc2 A1:|

